img/cog.svg

<svg xmlns="http://www.w3.org/2000/svg" width="24" height="24">
  <path d="M12 15.5A3.5 3.5 0 018.5 12 3.5 3.5 0 0112 8.5a3.5 3.5 0 013.5 3.5 3.5 3.5 0 01-3.5 3.5m7.43-2.53a7.77 7.77 0 000-1.97l2.11-1.63a.5.5 0 00.12-.64l-2-3.46c-.12-.22-.39-.31-.61-.22l-2.49 1a7.25 7.25 0 00-1.69-.98l-.37-2.65A.5.5 0 0014 2h-4a.5.5 0 00-.5.42l-.37 2.65c-.63.25-1.17.59-1.69.98l-2.49-1a.5.5 0 00-.61.22l-2 3.46a.5.5 0 00.12.64L4.57 11a7.77 7.77 0 000 1.97l-2.11 1.66a.5.5 0 00-.12.64l2 3.46c.12.22.39.3.61.22l2.49-1.01c.52.4 1.06.74 1.69.99l.37 2.65a.5.5 0 00.5.42h4a.5.5 0 00.5-.42l.37-2.65a7.28 7.28 0 001.69-.99l2.49 1.01a.5.5 0 00.61-.22l2-3.46a.5.5 0 00-.12-.64l-2.11-1.66z"/>
</svg>

<?xml version="1.0" encoding="UTF-8"?><!DOCTYPE svg PUBLIC "-//W3C//DTD SVG 1.1//EN" "http://www.w3.org/Graphics/SVG/1.1/DTD/svg11.dtd"><svg xmlns="http://www.w3.org/2000/svg" xmlns:xlink="http://www.w3.org/1999/xlink" version="1.1" width="24" height="24" viewBox="0 0 24 24"><path d="M12,15.5A3.5,3.5 0 0,1 8.5,12A3.5,3.5 0 0,1 12,8.5A3.5,3.5 0 0,1 15.5,12A3.5,3.5 0 0,1 12,15.5M19.43,12.97C19.47,12.65 19.5,12.33 19.5,12C19.5,11.67 19.47,11.34 19.43,11L21.54,9.37C21.73,9.22 21.78,8.95 21.66,8.73L19.66,5.27C19.54,5.05 19.27,4.96 19.05,5.05L16.56,6.05C16.04,5.66 15.5,5.32 14.87,5.07L14.5,2.42C14.46,2.18 14.25,2 14,2H10C9.75,2 9.54,2.18 9.5,2.42L9.13,5.07C8.5,5.32 7.96,5.66 7.44,6.05L4.95,5.05C4.73,4.96 4.46,5.05 4.34,5.27L2.34,8.73C2.21,8.95 2.27,9.22 2.46,9.37L4.57,11C4.53,11.34 4.5,11.67 4.5,12C4.5,12.33 4.53,12.65 4.57,12.97L2.46,14.63C2.27,14.78 2.21,15.05 2.34,15.27L4.34,18.73C4.46,18.95 4.73,19.03 4.95,18.95L7.44,17.94C7.96,18.34 8.5,18.68 9.13,18.93L9.5,21.58C9.54,21.82 9.75,22 10,22H14C14.25,22 14.46,21.82 14.5,21.58L14.87,18.93C15.5,18.67 16.04,18.34 16.56,17.94L19.05,18.95C19.27,19.03 19.54,18.95 19.66,18.73L21.66,15.27C21.78,15.05 21.73,14.78 21.54,14.63L19.43,12.97Z" /></svg>
